X:140
T:Hermione, The
M:C |
L:1/8
B:Thompson's Compleat Collection of 200 Favourite Country Dances, vol. 2 (London, 1765)
Z:Transcribed and edited by Flynn Titford-Mock, 2007
Z:abc's:AK/Fiddler's Companion
K:A
a2 ec a2 ec | fefg agfe | a2 ec a2 ec | faB^d e4 :|
|: ecdf dBcd | cABc BG E2 | a2 ec f2 ed | cABG A4 :|

